X: 41950
T: Walking Stick, The
R: mazurka
M: 3/4
K: Dmajor
(3AAA|d2 f2 ag|bg B2 (3ggg|fe Ac eg|fd A2 (3AAA|
d2 f2 ag|bg B2(3ggg|fe Ac ec|d2d2:|:AF|
D2 (3FGA df|a2 ge Ad|g2 fd Ad|(3fff dA FE|
D2 (3FGA df|a2 ge Ad|fg fd AG|FA d2:|

